tools/download-figma-icons/icons/outlined-medium/parking.svg

<svg width="24" height="24" viewBox="0 0 24 24" fill="none" xmlns="http://www.w3.org/2000/svg">
<path fill-rule="evenodd" clip-rule="evenodd" d="M1.5 12C1.5 17.79 6.21 22.5 12 22.5C17.79 22.5 22.5 17.79 22.5 12C22.5 6.21 17.79 1.5 12 1.5C6.21 1.5 1.5 6.21 1.5 12ZM0 12C0 5.3835 5.3835 0 12 0C18.6165 0 24 5.3835 24 12C24 18.6165 18.6165 24 12 24C5.3835 24 0 18.6165 0 12ZM10.5001 12.0181C11.7331 12.0519 13.5751 12.0669 14.1841 11.4631C14.7098 10.9419 15.0001 10.2481 15.0001 9.51013C15.0001 8.77363 14.7098 8.07988 14.1841 7.55863C13.3666 6.74713 11.8081 6.73213 10.5001 6.74413V12.0181ZM9.7501 5.25087L10.2736 5.24562L10.2859 5.24547C11.8268 5.22673 13.9363 5.20106 15.2401 6.49362C16.0523 7.29837 16.5001 8.37087 16.5001 9.51012C16.5001 10.6509 16.0523 11.7234 15.2401 12.5281C14.3738 13.3861 12.8498 13.5339 11.3918 13.5339C11.1284 13.5339 10.8722 13.5271 10.6185 13.5205C10.579 13.5194 10.5395 13.5184 10.5001 13.5174V18.0001C10.5001 18.4149 10.1649 18.7501 9.7501 18.7501C9.33535 18.7501 9.0001 18.4149 9.0001 18.0001V6.00087C9.0001 5.58612 9.33535 5.25087 9.7501 5.25087Z" fill="black"/>
</svg>

<svg xmlns="http://www.w3.org/2000/svg" width="24" height="24" fill="none" viewBox="0 0 24 24"><path fill="currentColor" fill-rule="evenodd" d="M1.5 12c0 5.79 4.71 10.5 10.5 10.5S22.5 17.79 22.5 12 17.79 1.5 12 1.5 1.5 6.21 1.5 12M0 12C0 5.384 5.384 0 12 0s12 5.384 12 12-5.384 12-12 12S0 18.616 0 12m10.5.018c1.233.034 3.075.049 3.684-.555A2.73 2.73 0 0 0 15 9.51c0-.736-.29-1.43-.816-1.951-.817-.812-2.376-.827-3.684-.815zm-.75-6.767.524-.005h.012c1.54-.02 3.65-.045 4.954 1.248A4.22 4.22 0 0 1 16.5 9.51a4.22 4.22 0 0 1-1.26 3.018c-.866.858-2.39 1.006-3.848 1.006q-.394-.002-.774-.014l-.118-.003V18A.75.75 0 1 1 9 18V6a.75.75 0 0 1 .75-.75" clip-rule="evenodd"/></svg>
